icons/calendar-date-9.svg

<svg
  xmlns="http://www.w3.org/2000/svg"
  viewBox="0 0 500 500"
  width="500"
  height="500"
  fill="#ffffff"
>
  <path d="M382.5 47.2h-16.7V5h-24.4v42.2H158.6V5h-24.4v42.2h-16.7a91.5 91.5 0 0 0-91.4 91.4v265a91.5 91.5 0 0 0 91.4 91.4h265a91.5 91.5 0 0 0 91.4-91.4v-265a91.5 91.5 0 0 0-91.4-91.4zm67 356.4a67.1 67.1 0 0 1-67 67h-265a67.1 67.1 0 0 1-67-67v-265c0-2.2.1-4.3.3-6.4h398.4c.2 2.1.3 4.2.3 6.4z" />
  <path
    data-name="9"
    d="M252.1 188.2c-42.1 0-70.3 34.1-70.3 73 0 35.2 23.8 63 60.8 63 20.5 0 37-8.2 48.4-22.2h.9c-3.8 24.4-13.6 42.4-27.2 54.8-11.7 11-26.9 17.7-43 19.9-9.5 1-16.5 1.6-22.5 1v22.7a130.5 130.5 0 0 0 25.7-1.6c22.1-2.5 43.9-12 59.7-27.5 20.3-19.6 35.5-51.2 35.5-96.5 0-52.5-26-86.6-68-86.6zm37.3 93.3c-7.3 12.3-21.8 21.5-40.5 21.5-24 0-39.5-18-39.5-43.7 0-29.1 16.7-49.9 40.4-49.9 29.2 0 42.1 26.8 42.1 62 0 4.4-.9 7.6-2.5 10.1z"
  />
</svg>

<svg xmlns="http://www.w3.org/2000/svg" viewBox="0 0 500 500">
  <g id="calendar-date-9">
    <path id="outline" d="M382.5,47.2H365.8V5H341.4V47.2H158.6V5H134.2V47.2H117.5a91.5,91.5,0,0,0-91.4,91.4v265A91.5,91.5,0,0,0,117.5,495h265a91.5,91.5,0,0,0,91.4-91.4v-265A91.5,91.5,0,0,0,382.5,47.2Zm67,356.4a67.1,67.1,0,0,1-67,67h-265a67.1,67.1,0,0,1-67-67v-265c0-2.2.1-4.3.3-6.4H449.2c.2,2.1.3,4.2.3,6.4Z"/>
    <path id="_9" data-name="9" d="M252.1,188.2c-42.1,0-70.3,34.1-70.3,73,0,35.2,23.8,63,60.8,63,20.5,0,37-8.2,48.4-22.2h.9c-3.8,24.4-13.6,42.4-27.2,54.8-11.7,11-26.9,17.7-43,19.9-9.5,1-16.5,1.6-22.5,1v22.7a130.5,130.5,0,0,0,25.7-1.6c22.1-2.5,43.9-12,59.7-27.5,20.3-19.6,35.5-51.2,35.5-96.5C320.1,222.3,294.1,188.2,252.1,188.2Zm37.3,93.3c-7.3,12.3-21.8,21.5-40.5,21.5-24,0-39.5-18-39.5-43.7,0-29.1,16.7-49.9,40.4-49.9,29.2,0,42.1,26.8,42.1,62C291.9,275.8,291,279,289.4,281.5Z"/>
  </g>
</svg>
